X:155
T:Elfin Waltzes #3. Le4.155
Q:3/4=50
L:1/4
B:L.Leadley MS#4 c1850
Z:vmp.Mike Hicken 2016 www.village-music-project.org.uk
M:3/4
K:D
!p!(A2B)|(G2A)|(FDE)|(C2A,)|(A2B)|(G2A)|(FDE)|A,2z||
|:!p!(a2b)|(g2a)|(fag)|(f2e)|(a2b)|(g2a)|(fag)|(f2e)|
(ef>e)|(ea>e)|(eb>e)|(ea>a)|(ab>a)|(ad'>f)|ea>c|1 dzz:|2 dzA/z/||
|:!f!!>(!f3!>)!|!p!(.f/z/ .e/z/ .d/z/|.c/z/ .B/z/ .A/z/|.^G/z/ .A/z/ .d/)z/|!f! !>(!c3!>)!|!p! (.c/z/ .B/z/ A/)z/|!f! !>(!A3!>)!|!p! (.F/z/ .A/z/ .d/)z/|
!f! !>(!f3!>)!|!p! (.f/z/ .e/z/ .^d/)z/|(.^d/z/ .e/z/ .f/z/|.g/z/ .f/z/ .e/)z/|(.=d/z/ .c/z/ .B/)z/|(.A/z/ .G/z/ .E/)z/|1 D3-|DzA/z/ :|2 D3-|Dzz|]

